X:1
T: Storrers
C:
R:Reel
Q: 232
K:A
M:4/4
L:1/8
|:ed|c2 A2 Ac BA|G2 E2 E2 FE|^D2 B2 Bc BA|G2 E2 E2 ed|
c2 A2 Ac BA|GA Bc de fg|ae cA Gf ed|c2 A2 A2 ce|
fe ce ag fe|fe c2 c2 ce|fe ce ag fe|d2 B2 B2 ce|
fe ce ag fe|fe fg ag fe|dc BA Gf ed|c2 A2 A2:|
